icons/person-list-outline.svg

<svg xmlns="http://www.w3.org/2000/svg" width="24" height="24" viewBox="0 0 24 24">
  <path d="M10.4676228,16.0003645 L11.0076763,16.0057544 C14.4141691,16.0682088 15.80903,16.6867426 15.9842893,19.0917479 L15.9953786,19.2802927 L16,19.5 L16,20.5 C16,20.7383924 15.9971539,20.817813 15.9690676,20.9648045 C15.9064905,21.2923056 15.7318635,21.5826456 15.4244325,21.7746571 C15.1451825,21.9490675 14.9786076,21.9883117 14.4919729,21.9973073 L14,22 L4,22 L3.65107363,21.9952256 C2.49782794,21.9601842 2.04900063,21.7156474 2.0039004,20.7255244 L2.00017148,20.5789484 L2,19.5 C2,16.7811217 3.40027757,16.074116 6.99322939,16.0059404 L7.53477183,16.0003645 L10.4676228,16.0003645 Z M7.53716646,18.0003616 C4.63739326,18.0073055 4.03538181,18.220675 4.00155904,19.3876232 L3.99999999,19.4998411 L3.999,20 L14,20 L14.0002452,19.5221452 L13.9966548,19.3478329 C13.9474604,18.265257 13.4009903,18.0221242 10.7281847,18.0016669 L7.53716646,18.0003616 Z M9,6 C11.209139,6 13,7.790861 13,10 C13,12.209139 11.209139,14 9,14 C6.790861,14 5,12.209139 5,10 C5,7.790861 6.790861,6 9,6 Z M9,8 C7.8954305,8 7,8.8954305 7,10 C7,11.1045695 7.8954305,12 9,12 C10.1045695,12 11,11.1045695 11,10 C11,8.8954305 10.1045695,8 9,8 Z M21,6 C21.5522847,6 22,6.44771525 22,7 C22,7.51283584 21.6139598,7.93550716 21.1166211,7.99327227 L21,8 L15,8 C14.4477153,8 14,7.55228475 14,7 C14,6.48716416 14.3860402,6.06449284 14.8833789,6.00672773 L15,6 L21,6 Z M21,2 C21.5522847,2 22,2.44771525 22,3 C22,3.51283584 21.6139598,3.93550716 21.1166211,3.99327227 L21,4 L15,4 C14.4477153,4 14,3.55228475 14,3 C14,2.48716416 14.3860402,2.06449284 14.8833789,2.00672773 L15,2 L21,2 Z"/>
</svg>

<svg xmlns="http://www.w3.org/2000/svg" viewBox="0 0 24 24">
  <path d="M10.47 16H11c3.4.07 4.8.69 4.97 3.1l.02.18v1.22c0 .24 0 .32-.03.46a1.2 1.2 0 0 1-.55.81c-.27.18-.44.22-.93.23H3.65c-1.15-.04-1.6-.28-1.65-1.27V19.5c0-2.72 1.4-3.43 5-3.5h3.46zm-2.93 2c-2.9 0-3.5.22-3.54 1.39V20h10v-.65c-.05-1.08-.6-1.33-3.27-1.35h-3.2zM9 6a4 4 0 1 1 0 8 4 4 0 0 1 0-8zm0 2a2 2 0 1 0 0 4 2 2 0 0 0 0-4zm12-2a1 1 0 0 1 .12 2H15a1 1 0 0 1-.12-2H21zm0-4a1 1 0 0 1 .12 2H15a1 1 0 0 1-.12-2H21z"/>
</svg>
